assets/Woman fairy/Dark/Flat/woman_fairy_flat_dark.svg

<svg width="32" height="32" viewBox="0 0 32 32" fill="none" xmlns="http://www.w3.org/2000/svg">
<path d="M18.7225 5.89025C20.0625 4.55025 22.2325 4.55025 23.5725 5.89025C24.9125 7.23025 24.9125 9.40025 23.5625 10.7403L20.3084 13.9944L20.7122 14.3982C21.5823 15.2683 21.5823 16.6902 20.7122 17.5603C19.8421 18.4305 18.4202 18.4305 17.5501 17.5603L16.175 16.1853L14.7872 17.5731C13.9341 18.4262 12.54 18.4262 11.6869 17.5731C10.8338 16.72 10.8338 15.3259 11.6869 14.4728L11.9868 14.1729C11.9757 14.1621 11.9647 14.1512 11.9538 14.1403L8.5838 10.7703C7.2438 9.43028 7.2438 7.26028 8.5838 5.92028C9.9238 4.58028 12.0938 4.58028 13.4338 5.92028L16.0592 8.54569L18.7225 5.89025Z" fill="#75E0FC"/>
<path d="M11.2286 6.09779C11.1327 6.10971 11.0646 6.19712 11.0765 6.29303L11.2659 7.81737L10.1662 6.81881C10.0947 6.75384 9.98402 6.75917 9.91905 6.83073C9.85407 6.90228 9.85941 7.01295 9.93096 7.07793L14.2925 11.0384C14.364 11.1034 14.4747 11.098 14.5397 11.0265C14.6047 10.9549 14.5993 10.8442 14.5278 10.7793L11.6635 8.17836L11.4239 6.24988C11.4119 6.15396 11.3245 6.08587 11.2286 6.09779ZM20.9443 6.15395C21.0401 6.16682 21.1073 6.2549 21.0945 6.35069L20.8875 7.89105L22.085 6.81805C22.157 6.75355 22.2676 6.75961 22.3321 6.83159C22.3966 6.90357 22.3905 7.01421 22.3186 7.07871L17.9886 10.9587C17.9166 11.0232 17.8059 11.0171 17.7414 10.9452C17.677 10.8732 17.683 10.7625 17.755 10.698L20.4861 8.2508L20.7476 6.30409C20.7605 6.2083 20.8485 6.14108 20.9443 6.15395ZM9.86755 9.27544C9.93254 9.20391 10.0432 9.1986 10.1148 9.26358L13.5711 12.4035C13.6426 12.4685 13.6479 12.5791 13.583 12.6507C13.518 12.7222 13.4073 12.7275 13.3358 12.6625L12.1114 11.5503C12.1106 11.5504 12.1098 11.5505 12.109 11.5505L10.859 11.6505C10.7627 11.6582 10.6783 11.5864 10.6706 11.49C10.6629 11.3937 10.7347 11.3093 10.8311 11.3016L11.7562 11.2276L9.87941 9.52265C9.80787 9.45766 9.80256 9.34698 9.86755 9.27544ZM22.3877 9.56035C22.4603 9.49658 22.4675 9.386 22.4037 9.31338C22.3399 9.24077 22.2293 9.2336 22.1567 9.29738L18.7067 12.3274C18.6341 12.3912 18.6269 12.5017 18.6907 12.5743C18.7545 12.647 18.8651 12.6541 18.9377 12.5904L20.1534 11.5226C20.1787 11.5412 20.2093 11.5532 20.2428 11.5559L21.4828 11.6559C21.5792 11.6637 21.6636 11.5919 21.6713 11.4955C21.6791 11.3992 21.6073 11.3148 21.511 11.307L20.4924 11.2249L22.3877 9.56035Z" fill="white"/>
<path d="M17.1722 4.59385L17.1458 4.56868C16.6019 4.05011 15.7446 4.05671 15.2087 4.58358C15.014 4.77501 14.7643 4.90557 14.4963 4.9579C13.9151 5.07137 13.4574 5.53338 13.3566 6.11686L13.2477 6.74717C13.2188 6.9149 13.1655 7.07752 13.0897 7.2299L13.032 7.34574C12.8739 7.66332 12.8404 8.0286 12.9383 8.3696L12.9549 8.42774C13.0211 8.6584 13.0177 8.90347 12.9452 9.13222C12.782 9.64694 12.9769 10.2077 13.4242 10.5102L13.7337 10.7195C14.0181 10.9119 14.3535 11.0147 14.6968 11.0147H17.6365C17.9842 11.0147 18.324 10.9106 18.612 10.7158L18.9023 10.5194C19.3593 10.2103 19.5628 9.64055 19.4052 9.11191C19.3407 8.89556 19.3354 8.66587 19.3897 8.44675L19.4368 8.25682C19.5213 7.9162 19.4622 7.55583 19.2734 7.26003C19.1764 7.10808 19.1126 6.93733 19.0861 6.759L18.9931 6.1309C18.9057 5.54154 18.4567 5.07103 17.8721 4.95619C17.6091 4.90452 17.3663 4.77881 17.1722 4.59385Z" fill="black"/>
<path d="M23.0841 9.01178C23.0841 8.82844 23.2327 8.67999 23.4161 8.67999C23.6098 8.67999 23.7624 8.84519 23.747 9.03831L23.6638 10.0824C23.6422 10.7298 23.5941 12.4567 23.5622 13.6192C23.5449 14.2506 23.0281 14.7526 22.3965 14.7526C22.2437 14.7526 22.0925 14.7225 21.9513 14.6642L19.0494 13.4652C18.9935 13.4421 18.9321 13.4832 18.9321 13.5437V13.886C18.9321 15.2933 18.9321 15.9969 19.03 16.6914C19.1278 17.3858 19.3223 18.0621 19.7113 19.4145L20.2707 21.3591C20.3881 21.7672 20.3269 22.2061 20.1024 22.5666L16.9636 27.6073C16.8578 27.7772 16.6054 27.7602 16.5234 27.5778L15.8849 26.1583C15.8489 26.0782 15.8493 25.9873 15.8866 25.9079C16.1482 25.3513 17.222 23.0557 17.7776 21.7101C17.8273 21.5897 17.8264 21.4554 17.777 21.3348L16.5716 18.3943C16.4716 18.1503 16.1107 18.2074 16.091 18.4705L15.302 29.0067C15.294 29.1137 15.2294 29.2082 15.1328 29.2547L13.8111 29.89C13.6451 29.9697 13.4528 29.8488 13.4528 29.6646L13.4399 14.395C13.4398 14.2607 13.4397 14.1935 13.4047 14.1697C13.3957 14.1636 13.3855 14.1593 13.3748 14.1573C13.3332 14.1494 13.2856 14.1968 13.1905 14.2917V14.2917C13.1905 14.2917 12.5014 14.9617 11.5342 15.4517C10.6446 15.9023 9.7651 15.8962 9.20171 15.8923C9.15247 15.892 9.10564 15.8917 9.06144 15.8917C8.51144 15.8917 7.81458 15.6957 7.81458 15.6957C7.81458 15.6957 7.51379 16.0395 7.02061 15.8817C6.8697 16.0654 6.62304 16.274 6.36143 16.0902C5.88877 15.7582 6.2722 15.0563 6.4983 14.7987C6.84131 14.3901 7.47163 13.9717 8.03326 13.9717C8.23881 13.9612 8.44036 13.9602 8.6421 13.9591C9.20944 13.9562 9.77835 13.9533 10.4424 13.7408C11.3968 13.4352 12.1195 12.6216 12.7065 11.9607C13.0866 11.5328 13.4097 11.169 13.7021 11.0486C14.2121 10.8386 14.7382 10.7994 15.2882 10.7994H17.1082C17.7282 10.7994 18.2401 10.8732 18.9321 11.2095L21.6421 12.3246C21.6919 12.0744 21.8904 11.011 21.9966 10.4412C22.0397 10.2097 21.9826 9.96901 21.8231 9.79582V9.79582C21.7108 9.67383 21.6421 9.51568 21.6421 9.34986L21.6422 8.55604C21.6422 8.32161 21.8337 8.13234 22.0681 8.13504C22.3091 8.13781 22.5026 8.34196 22.5016 8.58296C22.5003 8.87021 22.5038 9.12171 22.5069 9.35727C22.509 9.51485 22.6375 9.64074 22.7951 9.64074C22.9547 9.64074 23.0841 9.51148 23.0841 9.35186V9.01178Z" fill="#422426"/>
<path d="M15.3777 27.9953L15.302 29.0066C15.294 29.1136 15.2294 29.2081 15.1328 29.2546L13.8111 29.8899C13.6451 29.9696 13.4528 29.8487 13.4528 29.6645L13.4515 28.1826L15.3777 27.9953ZM17.5806 26.6164L16.9636 27.6072C16.8578 27.7771 16.6054 27.7601 16.5234 27.5777L15.8849 26.1582C15.8489 26.0781 15.8493 25.9872 15.8866 25.9078C15.98 25.7091 16.1768 25.2888 16.4167 24.7693L17.5806 26.6164Z" fill="#635994"/>
<path d="M17.17 10.0004C17.17 10.055 17.17 12.9866 17.17 12.9866L15.17 13.0002V10.0002L17.17 10.0004Z" fill="#452829"/>
<path d="M18.9903 16.4104L19.6822 19.0287C19.7028 19.1068 19.6696 19.1892 19.6006 19.2311L19.425 19.3379C17.6365 20.4252 15.5836 21.0002 13.4905 21.0002C13.3941 21.0002 13.3167 20.9207 13.3192 20.8244L13.4357 16.4104H18.9903Z" fill="#8B62BF"/>
<path d="M17.1688 10.7996C17.7034 10.804 18.1631 10.8692 18.7386 11.1202C18.8472 11.2783 18.9116 11.4692 18.9138 11.6753L18.9332 13.5296C18.9325 13.5341 18.9321 13.5388 18.9321 13.5437V13.886C18.9321 14.7923 18.9321 15.4068 18.9582 15.9149L18.9591 16.0002H13.4412L13.4399 14.3949C13.4398 14.2864 13.4397 14.2217 13.4213 14.1883V11.735C13.4213 11.472 13.5228 11.2327 13.6887 11.0542C13.6932 11.0523 13.6976 11.0504 13.7021 11.0486C14.1751 10.8538 14.6621 10.8059 15.1691 10.8L15.8157 12.0273C15.9658 12.3122 16.3739 12.312 16.5237 12.027L17.1688 10.7996Z" fill="#8B62BF"/>
<path d="M13.4416 16.4084L13.4409 15.5742H18.9448C18.9538 15.8868 18.9692 16.1542 18.9955 16.4084H13.4416Z" fill="#C3EF3C"/>
<path d="M14.7019 8.00005C14.7019 8.38665 14.3885 8.70005 14.0019 8.70005C13.6153 8.70005 13.3019 8.38665 13.3019 8.00005C13.3019 7.61345 13.6153 7.30005 14.0019 7.30005C14.3885 7.30005 14.7019 7.61345 14.7019 8.00005ZM18.9921 8.00005C18.9921 8.38665 18.6787 8.70005 18.2921 8.70005C17.9055 8.70005 17.5921 8.38665 17.5921 8.00005C17.5921 7.61345 17.9055 7.30005 18.2921 7.30005C18.6787 7.30005 18.9921 7.61345 18.9921 8.00005Z" fill="#452829"/>
<path d="M18.4102 6.94266C18.363 6.71864 18.1643 6.55046 17.9263 6.55046H16.5196C16.0019 6.55046 15.509 6.32909 15.1651 5.94217L15.0271 5.78696C14.9829 5.73721 14.9008 5.76017 14.8888 5.82564C14.85 6.03739 14.7274 6.22452 14.5487 6.34466L14.2192 6.56629C14.0519 6.67876 13.9426 6.85697 13.9129 7.05341L13.9543 8.67736C14.001 9.71827 14.8584 10.5382 15.9004 10.5382H16.428C17.4691 10.5382 18.325 9.71747 18.3687 8.67736L18.4102 6.94266Z" fill="#573739"/>
<path d="M22.4727 5.33325V9.36349C22.4727 9.5306 22.6315 9.66821 22.8243 9.66821C23.0171 9.66821 23.1758 9.5306 23.1758 9.36349V5.33325H22.4727Z" fill="#75443E"/>
<path d="M22.973 2.36856L23.4421 3.32964C23.465 3.3754 23.5108 3.40973 23.568 3.42117L24.632 3.56991C24.7693 3.59279 24.8265 3.75297 24.7235 3.85594L23.957 4.59963C23.9226 4.63395 23.8998 4.69116 23.9112 4.74837L24.0943 5.80098C24.1172 5.93827 23.9799 6.04124 23.854 5.9726L22.8929 5.48062C22.8472 5.45773 22.79 5.45773 22.7327 5.48062L21.7831 5.98404C21.6687 6.04124 21.5314 5.93827 21.5543 5.80098L21.7373 4.74837C21.7488 4.69116 21.7259 4.63395 21.6916 4.59963L20.925 3.85594C20.822 3.76441 20.8792 3.59279 21.0165 3.56991L22.0691 3.42117C22.1264 3.40973 22.1721 3.3754 22.195 3.32964L22.6641 2.36856C22.7327 2.24271 22.9044 2.24271 22.973 2.36856Z" fill="#FCD53F"/>
<path d="M15.0074 7.32104C15.2573 7.32104 15.4572 7.49242 15.5858 7.68521C15.491 7.71384 15.399 7.74044 15.3083 7.76667C15.1049 7.82548 14.9077 7.88248 14.7003 7.95654L14.4861 7.76375C14.4004 7.68521 14.4076 7.54954 14.5004 7.47813C14.6432 7.37817 14.8289 7.32104 15.0074 7.32104ZM17.3326 7.32129C17.0827 7.32129 16.8828 7.49266 16.7543 7.68545C16.849 7.71409 16.941 7.74068 17.0317 7.76692C17.2352 7.82573 17.4323 7.88272 17.6397 7.95679L17.8539 7.764C17.9396 7.68545 17.9324 7.54978 17.8396 7.47838C17.6968 7.37841 17.5112 7.32129 17.3326 7.32129Z" fill="black"/>
<path d="M17.7889 6.93908L17.788 6.93832L17.7866 6.93717L17.7827 6.93402C17.7796 6.93155 17.7755 6.92837 17.7703 6.92462C17.7601 6.91711 17.7457 6.90726 17.7273 6.89614C17.6904 6.8739 17.6371 6.84649 17.5676 6.82239C17.4278 6.77393 17.2252 6.73989 16.9623 6.78514C16.8988 6.79608 16.8562 6.85643 16.8671 6.91995C16.878 6.98347 16.9384 7.02609 17.0019 7.01516C17.2239 6.97694 17.3867 7.00669 17.4911 7.04291C17.5437 7.06115 17.5823 7.08128 17.6067 7.09601C17.6189 7.10337 17.6276 7.10936 17.6326 7.11307L17.6376 7.11678C17.6865 7.15796 17.7599 7.15237 17.8016 7.10372C17.8436 7.0548 17.8378 6.98104 17.7889 6.93908C17.6622 7.08711 17.7889 6.9391 17.7889 6.93908ZM14.5599 6.9342L14.561 6.93331L14.5624 6.93213L14.5664 6.92896C14.5696 6.9265 14.5738 6.92336 14.5791 6.91968C14.5895 6.91232 14.604 6.90277 14.6227 6.89209C14.6601 6.87072 14.714 6.84481 14.7847 6.82276C14.927 6.77842 15.134 6.75075 15.4068 6.80291C15.4701 6.81502 15.5116 6.87615 15.4995 6.93945C15.4874 7.00276 15.4263 7.04426 15.363 7.03216C15.128 6.98725 14.96 7.01261 14.8542 7.04559C14.8009 7.06218 14.7625 7.081 14.7386 7.09468C14.7266 7.10153 14.7183 7.1071 14.7135 7.11047L14.709 7.11375C14.7087 7.11398 14.7089 7.11387 14.709 7.11375C14.6596 7.15507 14.5869 7.14796 14.5455 7.09861C14.5041 7.04923 14.5105 6.97562 14.5599 6.9342Z" fill="black"/>
<path d="M14.5581 7.86016C14.6281 7.60016 14.8581 7.41016 15.1381 7.41016C15.4281 7.41016 15.6681 7.61016 15.7281 7.88016C15.7381 7.94016 15.6881 8.00016 15.6281 8.00016H14.6781C14.6081 8.00016 14.5481 7.93016 14.5581 7.86016ZM17.7632 7.86016C17.6932 7.60016 17.4632 7.41016 17.1832 7.41016C16.8932 7.41016 16.6532 7.61016 16.6032 7.88016C16.5932 7.94016 16.6432 8.00016 16.7032 8.00016H17.6532C17.7232 8.00016 17.7832 7.93016 17.7632 7.86016Z" fill="white"/>
<path d="M14.8483 7.90026C14.8483 7.69026 15.0183 7.52026 15.2283 7.52026C15.4383 7.52026 15.6083 7.69026 15.5983 7.90026V7.90027C15.5983 7.93027 15.5983 7.97027 15.5883 8.00026H14.8583C14.8583 7.98526 14.8558 7.96776 14.8533 7.95026C14.8508 7.93276 14.8483 7.91526 14.8483 7.90026ZM17.4734 7.90026C17.4734 7.69026 17.3034 7.52026 17.0934 7.52026C16.8834 7.52026 16.7134 7.69026 16.7234 7.90026C16.7234 7.93026 16.7234 7.97026 16.7334 8.00026H17.4634C17.4634 7.98526 17.4659 7.96776 17.4684 7.95026C17.4709 7.93276 17.4734 7.91526 17.4734 7.90026Z" fill="#7D4533"/>
<path d="M15.2282 7.68018C15.3482 7.68018 15.4482 7.78018 15.4482 7.90018C15.4482 7.94018 15.4382 7.97018 15.4082 8.00018H15.0282L15.0282 8.00017C15.0182 7.97017 15.0082 7.94017 15.0082 7.90018C15.0082 7.78018 15.1082 7.68018 15.2282 7.68018ZM17.1034 7.68018C16.9834 7.68018 16.8834 7.78018 16.8834 7.90018C16.8834 7.94018 16.8934 7.97018 16.9234 8.00018H17.3034C17.3134 7.97018 17.3234 7.94018 17.3234 7.90018C17.3234 7.78018 17.2234 7.68018 17.1034 7.68018Z" fill="black"/>
<path d="M15.1682 7.75018C15.1682 7.78884 15.1369 7.82018 15.0982 7.82018C15.0595 7.82018 15.0282 7.78884 15.0282 7.75018C15.0282 7.71152 15.0595 7.68018 15.0982 7.68018C15.1369 7.68018 15.1682 7.71152 15.1682 7.75018ZM17.0532 7.75018C17.0532 7.78884 17.0219 7.82018 16.9832 7.82018C16.9445 7.82018 16.9132 7.78884 16.9132 7.75018C16.9132 7.71152 16.9445 7.68018 16.9832 7.68018C17.0219 7.68018 17.0532 7.71152 17.0532 7.75018Z" fill="white"/>
<path d="M16.005 8.0055L15.785 8.7155C15.745 8.8655 15.855 9.0155 16.005 9.0155H16.335C16.485 9.0155 16.595 8.8655 16.555 8.7255L16.335 8.0155C16.275 7.8455 16.055 7.8455 16.005 8.0055Z" fill="#3D2123"/>
<path d="M16.17 9.35078C15.94 9.35078 15.73 9.30078 15.55 9.20078C15.49 9.17078 15.42 9.24078 15.46 9.30078C15.62 9.53078 15.88 9.68078 16.17 9.68078C16.47 9.68078 16.73 9.53078 16.88 9.30078C16.92 9.24078 16.85 9.17078 16.79 9.20078C16.61 9.29078 16.4 9.35078 16.17 9.35078Z" fill="#290118"/>
</svg>

<svg xmlns="http://www.w3.org/2000/svg" width="32" height="32" fill="none"><path fill="#75E0FC" d="M18.723 5.89a3.428 3.428 0 0 1 4.85 0 3.42 3.42 0 0 1-.01 4.85l-3.255 3.254.404.404c.87.87.87 2.292 0 3.162-.87.87-2.292.87-3.162 0l-1.375-1.375-1.388 1.388a2.198 2.198 0 0 1-3.1 0 2.198 2.198 0 0 1 0-3.1l.3-.3a3.388 3.388 0 0 1-.033-.033l-3.37-3.37a3.428 3.428 0 0 1 0-4.85 3.428 3.428 0 0 1 4.85 0l2.625 2.626 2.663-2.656Z"/><path fill="#fff" d="M11.229 6.098a.175.175 0 0 0-.152.195l.189 1.524-1.1-.998a.175.175 0 1 0-.235.259l4.362 3.96a.175.175 0 0 0 .235-.259l-2.864-2.6-.24-1.93a.175.175 0 0 0-.195-.151Zm9.715.056a.175.175 0 0 1 .15.197l-.207 1.54 1.198-1.073a.175.175 0 1 1 .234.26l-4.33 3.88a.175.175 0 0 1-.234-.26l2.731-2.447.262-1.947a.175.175 0 0 1 .196-.15ZM9.868 9.275a.175.175 0 0 1 .247-.011l3.456 3.14a.175.175 0 0 1-.235.258L12.11 11.55h-.002l-1.25.1a.175.175 0 1 1-.028-.348l.925-.074L9.88 9.523a.175.175 0 0 1-.011-.248Zm12.52.285a.175.175 0 1 0-.231-.263l-3.45 3.03a.175.175 0 1 0 .23.263l1.216-1.067c.026.018.056.03.09.033l1.24.1a.175.175 0 1 0 .028-.349l-1.019-.082 1.896-1.665Z"/><path fill="#000" d="m17.172 4.594-.026-.025a1.392 1.392 0 0 0-1.937.015 1.402 1.402 0 0 1-.713.374 1.436 1.436 0 0 0-1.14 1.159l-.108.63c-.03.168-.082.33-.158.483l-.058.116a1.419 1.419 0 0 0-.094 1.024l.017.058c.066.23.063.475-.01.704a1.219 1.219 0 0 0 .48 1.378l.309.21c.284.192.62.295.963.295h2.94c.347 0 .687-.104.975-.3l.29-.196c.457-.309.66-.878.503-1.407a1.264 1.264 0 0 1-.015-.665l.047-.19a1.28 1.28 0 0 0-.164-.997 1.281 1.281 0 0 1-.187-.501l-.093-.628a1.408 1.408 0 0 0-1.12-1.175 1.408 1.408 0 0 1-.7-.362Z"/><path fill="#422426" d="M23.084 9.012a.332.332 0 1 1 .663.026l-.083 1.044c-.022.648-.07 2.375-.102 3.537a1.165 1.165 0 0 1-1.61 1.045l-2.903-1.199a.085.085 0 0 0-.117.079v.342c0 1.407 0 2.11.098 2.805.098.695.292 1.371.681 2.724l.56 1.944a1.5 1.5 0 0 1-.169 1.208l-3.138 5.04a.25.25 0 0 1-.44-.03l-.64-1.419a.299.299 0 0 1 .003-.25c.261-.557 1.335-2.852 1.89-4.198a.492.492 0 0 0 0-.375l-1.205-2.94c-.1-.245-.461-.188-.481.076l-.789 10.536a.3.3 0 0 1-.17.248l-1.32.635a.25.25 0 0 1-.36-.225l-.012-15.27c0-.134 0-.201-.035-.225a.08.08 0 0 0-.03-.013c-.042-.008-.09.04-.184.135 0 0-.69.67-1.657 1.16-.89.45-1.769.444-2.332.44h-.14c-.55 0-1.247-.196-1.247-.196s-.301.344-.794.186c-.151.183-.398.392-.66.208-.472-.332-.089-1.034.137-1.291.343-.409.974-.827 1.535-.827.206-.01.407-.012.61-.013.566-.003 1.135-.006 1.8-.218.954-.306 1.677-1.12 2.264-1.78.38-.428.703-.792.995-.912.51-.21 1.036-.25 1.586-.25h1.82c.62 0 1.132.074 1.824.41l2.71 1.116c.05-.25.248-1.314.355-1.884a.746.746 0 0 0-.174-.645.663.663 0 0 1-.18-.446v-.794c0-.234.19-.424.425-.421a.445.445 0 0 1 .434.448c-.002.287.002.539.005.774a.289.289 0 0 0 .577-.005v-.34Z"/><path fill="#635994" d="m15.378 27.995-.076 1.012a.3.3 0 0 1-.17.248l-1.32.635a.25.25 0 0 1-.36-.226v-1.481l1.926-.188Zm2.203-1.379-.617.991a.25.25 0 0 1-.44-.03l-.64-1.419a.299.299 0 0 1 .003-.25c.093-.199.29-.62.53-1.139l1.164 1.847Z"/><path fill="#452829" d="M17.17 10v2.987l-2 .013v-3h2Z"/><path fill="#8B62BF" d="m18.99 16.41.692 2.619a.182.182 0 0 1-.081.202l-.176.107A11.424 11.424 0 0 1 13.491 21a.171.171 0 0 1-.172-.176l.117-4.414h5.554ZM17.169 10.8c.534.004.994.07 1.57.32a.996.996 0 0 1 .175.555l.02 1.855c-.002.004-.002.009-.002.014v.342c0 .906 0 1.52.026 2.029l.001.085h-5.518l-.001-1.605c0-.109 0-.173-.019-.207v-2.453c0-.263.102-.502.268-.68.004-.003.009-.005.013-.006.473-.195.96-.243 1.467-.249l.647 1.227a.4.4 0 0 0 .708 0l.645-1.227Z"/><path fill="#C3EF3C" d="m13.442 16.408-.001-.834h5.504c.009.313.024.58.05.834h-5.553Z"/><path fill="#452829" d="M14.702 8a.7.7 0 1 1-1.4 0 .7.7 0 0 1 1.4 0Zm4.29 0a.7.7 0 1 1-1.4 0 .7.7 0 0 1 1.4 0Z"/><path fill="#573739" d="M18.41 6.943a.495.495 0 0 0-.484-.393H16.52c-.518 0-1.011-.22-1.355-.608l-.138-.155a.08.08 0 0 0-.138.039.799.799 0 0 1-.34.519l-.33.221a.715.715 0 0 0-.306.487l.041 1.624a1.948 1.948 0 0 0 1.946 1.861h.528c1.041 0 1.897-.82 1.94-1.86l.042-1.735Z"/><path fill="#75443E" d="M22.473 5.333v4.03c0 .168.159.305.351.305.193 0 .352-.137.352-.305v-4.03h-.703Z"/><path fill="#FCD53F" d="m22.973 2.369.47.96c.022.046.068.08.125.092l1.064.149a.166.166 0 0 1 .091.286l-.766.744a.17.17 0 0 0-.046.148l.183 1.053a.162.162 0 0 1-.24.172l-.961-.492a.195.195 0 0 0-.16 0l-.95.503c-.114.057-.252-.046-.229-.183l.183-1.053a.169.169 0 0 0-.045-.148l-.767-.744c-.103-.092-.046-.263.091-.286l1.053-.149a.177.177 0 0 0 .126-.091l.47-.961a.174.174 0 0 1 .308 0Z"/><path fill="#000" d="M15.007 7.321c.25 0 .45.171.579.364l-.278.082c-.203.058-.4.115-.608.19l-.214-.193a.186.186 0 0 1 .014-.286.905.905 0 0 1 .507-.157Zm2.326 0c-.25 0-.45.172-.579.364.095.03.187.056.278.082.203.059.4.116.608.19l.214-.193a.186.186 0 0 0-.014-.286.905.905 0 0 0-.507-.157ZM17.789 6.94l-.001-.002h-.001l-.004-.004a.849.849 0 0 0-.215-.112 1.207 1.207 0 0 0-.606-.037.117.117 0 0 0 .04.23.975.975 0 0 1 .49.028.614.614 0 0 1 .14.07l.006.004a.117.117 0 0 0 .151-.178c-.127.148 0 0 0 0Zm-3.23-.006h.002l.001-.002.004-.003a.818.818 0 0 1 .218-.106c.143-.045.35-.072.623-.02a.117.117 0 0 1-.044.23 1.042 1.042 0 0 0-.509.013.581.581 0 0 0-.14.064l-.005.004a.117.117 0 0 1-.15-.18Z"/><path fill="#fff" d="M14.558 7.86a.601.601 0 0 1 1.17.02c.01.06-.04.12-.1.12h-.95c-.07 0-.13-.07-.12-.14Zm3.205 0a.6.6 0 0 0-.58-.45c-.29 0-.53.2-.58.47-.01.06.04.12.1.12h.95c.07 0 .13-.07.11-.14Z"/><path fill="#7D4533" d="M14.848 7.9c0-.21.17-.38.38-.38s.38.17.37.38c0 .03 0 .07-.01.1h-.73c0-.015-.002-.032-.005-.05a.376.376 0 0 1-.005-.05Zm2.625 0a.38.38 0 0 0-.38-.38c-.21 0-.38.17-.37.38 0 .03 0 .07.01.1h.73c0-.015.003-.032.005-.05a.376.376 0 0 0 .005-.05Z"/><path fill="#000" d="M15.228 7.68c.12 0 .22.1.22.22 0 .04-.01.07-.04.1h-.38a.296.296 0 0 1-.02-.1c0-.12.1-.22.22-.22Zm1.875 0c-.12 0-.22.1-.22.22 0 .04.01.07.04.1h.38c.01-.03.02-.06.02-.1 0-.12-.1-.22-.22-.22Z"/><path fill="#fff" d="M15.168 7.75a.07.07 0 1 1-.14 0 .07.07 0 0 1 .14 0Zm1.885 0a.07.07 0 1 1-.14 0 .07.07 0 0 1 .14 0Z"/><path fill="#3D2123" d="m16.005 8.005-.22.71c-.04.15.07.3.22.3h.33c.15 0 .26-.15.22-.29l-.22-.71c-.06-.17-.28-.17-.33-.01Z"/><path fill="#290118" d="M16.17 9.35c-.23 0-.44-.05-.62-.15-.06-.03-.13.04-.09.1.16.23.42.38.71.38.3 0 .56-.15.71-.38.04-.06-.03-.13-.09-.1-.18.09-.39.15-.62.15Z"/></svg>
